src/images/svg-to-icon-sprite/star-icon.svg

<svg width="19" height="17" viewBox="0 0 19 17" fill="none" xmlns="http://www.w3.org/2000/svg">
<path d="M9.5 0L11.5206 6.21885H18.0595L12.7694 10.0623L14.7901 16.2812L9.5 12.4377L4.20993 16.2812L6.23056 10.0623L0.940492 6.21885H7.47937L9.5 0Z" fill="#EA8632"/>
</svg>

<svg width="19" height="17" fill="none" xmlns="http://www.w3.org/2000/svg"><path d="m9.5 0 2.02 6.219h6.54l-5.29 3.843 2.02 6.22-5.29-3.844-5.29 3.843 2.02-6.219L.94 6.22h6.54L9.5 0Z" fill="#EA8632"/></svg>
